X:67
M:2/4
L:1/8
K:G
|: f/g/ | a/g/f/e/ d/c/B/A/ | BBBg | g/f/e/d/ c/B/A/G/ | AAAf | f/e/^d/^c/ B/A/G/F/ | GbFa | Ee/f/ g"tr"f | e4 |

